src/assets/logo/plastic.svg

<?xml version="1.0" encoding="UTF-8" standalone="no"?><!DOCTYPE svg PUBLIC "-//W3C//DTD SVG 1.1//EN" "http://www.w3.org/Graphics/SVG/1.1/DTD/svg11.dtd"><svg width="100%" height="100%" viewBox="0 0 540 200" version="1.1" xmlns="http://www.w3.org/2000/svg" xmlns:xlink="http://www.w3.org/1999/xlink" xml:space="preserve" xmlns:serif="http://www.serif.com/" style="fill-rule:evenodd;clip-rule:evenodd;stroke-linejoin:round;stroke-miterlimit:1.41421;"><g id="plastic"><path d="M345.105,54.552c7.069,-18.853 9.357,-34.552 9.357,-34.552c7.475,2.981 9.254,9.576 8.685,16.444l0,0c0,0 -0.31,6.283 -3.101,16.687c12.773,-0.618 36.941,-2.405 61.01,-23.827c0,0 26.851,32.793 -64.583,35.18c-2.999,8.322 -7.333,18.078 -13.594,28.68c0,0 -13.063,21.756 -7.668,28.21c9.732,-1.345 24.446,-24.211 27.936,-28.187c2.487,-2.834 15.093,-20.26 15.093,-20.26l0.059,-0.033c5.014,-2.753 15.825,0.033 15.825,0.033c-12.189,22.426 -20.881,51.707 -17.231,50.146c2.3,-0.3 8.293,-4.99 23.206,-22.969c2.069,-2.673 4.006,-5.026 5.774,-7.075l0.001,-0.001l0,0c6.506,-7.539 10.718,-10.95 10.718,-10.95c8.241,-7.629 20.583,-6.813 20.609,-6.812c0.021,-0.001 13.266,-1.017 13.799,9.664l0,0c-0.084,6.364 -4.936,12.985 -5.999,14.135c-4.632,5.013 -13.325,6.698 -16.55,3.115c-3.138,-3.485 -1.16,-10.408 4.393,-15.663c-1.359,0.072 -2.345,0.493 -3.768,1.834c-5.88,5.539 -11.856,14.615 -14.125,29.3c0,0 -2.864,16.148 16.497,6.801c0,0 9.219,-5.463 11.411,-12.386c0,0 5.454,1.302 1.069,12.37c-2.356,5.945 -10.917,14.889 -24.231,14.889c0,0 -22.628,1.3 -22.324,-20.823c-10.429,21.021 -22.994,19.73 -22.994,19.73c-14.854,-1.854 -13.812,-17.966 -10.435,-30.925c-19.636,28.972 -31.7,28.2 -31.7,28.2c-13.528,0 -12.777,-13.814 -12.777,-13.814c0.037,-5.292 1.025,-10.085 2.544,-14.343c-10.343,13.118 -27.4,30.866 -43.985,30.882c0,0 -15.553,-0.431 -14.285,-10.636c0,0 0.307,-8.095 8.11,-8.095c0,0 1.483,-0.126 3.774,0.715l0,0l0.002,0.001c0.129,0.047 0.261,0.098 0.395,0.151c1.831,0.69 3.459,1.104 4.905,1.297l0.025,-0.014c3.181,0 6.495,-1.843 7.586,-4.296c2.733,-6.144 -0.768,-15.124 -3.289,-20.242c-32.252,43.728 -43.948,40.941 -43.948,40.941c-8.927,0 -9.718,-8.173 -8.823,-14.998c-13.553,15.303 -20.928,13.283 -20.928,13.283c-9.735,0 -12.297,-8.27 -12.784,-14.917c-12.571,17.42 -21.105,14.774 -21.105,14.774c-14.984,-2.531 -13.309,-16.574 -9.736,-27.119c-12.45,13.01 -29.218,27.447 -43.529,29.065c0,0 -4.434,0.418 -6.678,-2.719c0,0 -5.806,-8.411 -2.449,-8.862c0,0 13.23,-1.191 27.452,-19.636c4.168,-6.061 7.47,-12.534 7.47,-17.833c0,0 0.246,-5.373 -4.832,-5.819c-48.879,34.996 -42.755,96.727 -42.755,96.727c-13.639,-3.446 -13.604,-18.778 -13.604,-18.778c0,-31.392 30.509,-87.407 30.509,-87.407c8.832,-2.586 10.954,1.1 11.164,4.694c3.65,-3.032 8.471,-5.685 14.168,-5.685c0,0 17.176,-0.106 17.176,17.147c0,0 -0.08,7.885 -3.493,15.981c11.969,-11.743 29.95,-36.577 41.674,-85.952c0,0 20.589,-0.244 -0.497,48.625c0,0 -21.253,43.262 -19.96,54.567c8.857,-0.128 17.571,-15.069 17.571,-15.069c21.125,-37.378 38.049,-35.277 38.049,-35.277c7.24,0 11.476,2.947 13.954,6.369c1.499,-0.786 2.957,-1.935 3.48,-3.549l0.014,-0.044c0,0 6.796,0.759 9.984,4.054c0,0 3.436,3.147 0.175,10.398c-10.187,22.654 -18.821,31.19 -14.179,30.759c9.176,-5.072 28.785,-30.029 28.785,-30.029c19.638,-24.288 22.443,-21.911 22.443,-21.911c6.801,0 11.493,4.055 11.493,4.055l-0.147,0.209c-12.462,17.703 -11.699,23.157 -11.699,23.157c0,6.918 2.143,11.019 4.606,13.447c17.358,-10.231 29.048,-28.122 36.744,-45.253c-6.761,-0.085 -18.021,-0.227 -34.276,-0.424c0,0 -18.68,-0.864 -36.738,-3.089c0,0 -11.99,-2.884 -29.254,-0.749c0,0 -20.647,2.032 -32.534,16.394c0,0 -6.964,-26.581 54.807,-24.704c0,0 44.569,3.811 63.236,3.669c0,0 6.159,0.271 18.85,-1.053Zm-121.615,43.141c0,0 -15.548,20.069 -11.16,24.278c0,0 4.962,3.764 20.428,-16.689c0,0 13.207,-17.701 10.107,-20.135c0,0 -7.646,-2.355 -19.375,12.546Z" style="fill:#a0a0a0;"/></g></svg>

<?xml version="1.0" encoding="UTF-8" standalone="no"?>
<!DOCTYPE svg PUBLIC "-//W3C//DTD SVG 1.1//EN" "http://www.w3.org/Graphics/SVG/1.1/DTD/svg11.dtd">
<svg width="100%" height="100%" viewBox="0 0 540 200" version="1.1" xmlns="http://www.w3.org/2000/svg" xmlns:xlink="http://www.w3.org/1999/xlink" xml:space="preserve" xmlns:serif="http://www.serif.com/" style="fill-rule:evenodd;clip-rule:evenodd;stroke-linejoin:round;stroke-miterlimit:2;">
    <g id="plastic">
        <path d="M345.105,54.552C352.174,35.699 354.462,20 354.462,20C361.937,22.981 363.716,29.576 363.147,36.444C363.147,36.444 362.837,42.727 360.046,53.131C372.819,52.513 396.987,50.726 421.056,29.304C421.056,29.304 447.907,62.097 356.473,64.484C353.474,72.806 349.14,82.562 342.879,93.164C342.879,93.164 329.816,114.92 335.211,121.374C344.943,120.029 359.657,97.163 363.147,93.187C365.634,90.353 378.24,72.927 378.24,72.927L378.299,72.894C383.313,70.141 394.124,72.927 394.124,72.927C381.935,95.353 373.243,124.634 376.893,123.073C379.193,122.773 385.186,118.083 400.099,100.104C402.168,97.431 404.105,95.078 405.873,93.029L405.874,93.028C412.38,85.489 416.592,82.078 416.592,82.078C424.833,74.449 437.175,75.265 437.201,75.266C437.222,75.265 450.467,74.249 451,84.93C450.916,91.294 446.064,97.915 445.001,99.065C440.369,104.078 431.676,105.763 428.451,102.18C425.313,98.695 427.291,91.772 432.844,86.517C431.485,86.589 430.499,87.01 429.076,88.351C423.196,93.89 417.22,102.966 414.951,117.651C414.951,117.651 412.087,133.799 431.448,124.452C431.448,124.452 440.667,118.989 442.859,112.066C442.859,112.066 448.313,113.368 443.928,124.436C441.572,130.381 433.011,139.325 419.697,139.325C419.697,139.325 397.069,140.625 397.373,118.502C386.944,139.523 374.379,138.232 374.379,138.232C359.525,136.378 360.567,120.266 363.944,107.307C344.308,136.279 332.244,135.507 332.244,135.507C318.716,135.507 319.467,121.693 319.467,121.693C319.504,116.401 320.492,111.608 322.011,107.35C311.668,120.468 294.611,138.216 278.026,138.232C278.026,138.232 262.473,137.801 263.741,127.596C263.741,127.596 264.048,119.501 271.851,119.501C271.851,119.501 273.334,119.375 275.625,120.216L275.627,120.217C275.756,120.264 275.888,120.315 276.022,120.368C277.853,121.058 279.481,121.472 280.927,121.665L280.952,121.651C284.133,121.651 287.447,119.808 288.538,117.355C291.271,111.211 287.77,102.231 285.249,97.113C252.997,140.841 241.301,138.054 241.301,138.054C232.374,138.054 231.583,129.881 232.478,123.056C218.925,138.359 211.55,136.339 211.55,136.339C201.815,136.339 199.253,128.069 198.766,121.422C186.195,138.842 177.661,136.196 177.661,136.196C162.677,133.665 164.352,119.622 167.925,109.077C155.475,122.087 138.707,136.524 124.396,138.142C124.396,138.142 119.962,138.56 117.718,135.423C117.718,135.423 111.912,127.012 115.269,126.561C115.269,126.561 128.499,125.37 142.721,106.925C146.889,100.864 150.191,94.391 150.191,89.092C150.191,89.092 150.437,83.719 145.359,83.273C96.48,118.269 102.604,180 102.604,180C88.965,176.554 89,161.222 89,161.222C89,129.83 119.509,73.815 119.509,73.815C128.341,71.229 130.463,74.915 130.673,78.509C134.323,75.477 139.144,72.824 144.841,72.824C144.841,72.824 162.017,72.718 162.017,89.971C162.017,89.971 161.937,97.856 158.524,105.952C170.493,94.209 188.474,69.375 200.198,20C200.198,20 220.787,19.756 199.701,68.625C199.701,68.625 178.448,111.887 179.741,123.192C188.598,123.064 197.312,108.123 197.312,108.123C218.437,70.745 235.361,72.846 235.361,72.846C242.601,72.846 246.837,75.793 249.315,79.215C250.814,78.429 252.272,77.28 252.795,75.666L252.809,75.622C252.809,75.622 259.605,76.381 262.793,79.676C262.793,79.676 266.229,82.823 262.968,90.074C252.781,112.728 244.147,121.264 248.789,120.833C257.965,115.761 277.574,90.804 277.574,90.804C297.212,66.516 300.017,68.893 300.017,68.893C306.818,68.893 311.51,72.948 311.51,72.948L311.363,73.157C298.901,90.86 299.664,96.314 299.664,96.314C299.664,103.232 301.807,107.333 304.27,109.761C321.628,99.53 333.318,81.639 341.014,64.508C334.253,64.423 322.993,64.281 306.738,64.084C306.738,64.084 288.058,63.22 270,60.995C270,60.995 258.01,58.111 240.746,60.246C240.746,60.246 220.099,62.278 208.212,76.64C208.212,76.64 201.248,50.059 263.019,51.936C263.019,51.936 307.588,55.747 326.255,55.605C326.255,55.605 332.414,55.876 345.105,54.552ZM223.49,97.693C223.49,97.693 207.942,117.762 212.33,121.971C212.33,121.971 217.292,125.735 232.758,105.282C232.758,105.282 245.965,87.581 242.865,85.147C242.865,85.147 235.219,82.792 223.49,97.693Z" style="fill:rgb(208,208,208);"/>
    </g>
</svg>
